DVA
CUT[Muede kehrt ein Wandersmann zurueck
    nach der Heimat seiner Liebe Glueck]
REG[Europa, Mitteleuropa, Deutschland, Unter - Franken, Bamberg Ebern,
    Muersbach]
KEY[D1020  16  G 2/4]
MEL[-5_1_  3__.2_  1_-7_1_1-7  -5__0__  0__
    -5_-7_  2__.1_  -7_2_4_3_  1__0__  0__
    1_2_  3__.5_  5__4_3_  2__0__  0_
    2_4_2_  1__.1_  3_2_-5_-7_  1__0__  0__ //] >>
FCT[Liebes - Lied]
CMT[Takt in 2/4 korrigiert, in der 3. und 4. Zeile Pause ergaenzt
    DVA-Signatur A 196 840]
